**kern	**silbe	**kern	**silbe
*ICvox	*	*ICvox	*
=1	=1	=1	=1
*G:	*	*G:	*
*M4/4	*	*M4/4	*
*clefF4	*	*clefF4	*
1r	.	1r	.
=2	=2	=2	=2
1r	.	1r	.
=3	=3	=3	=3
1r	.	1r	.
=4	=4	=4	=4
1r	.	1r	.
=5	=5	=5	=5
1r	.	4r	.
.	.	4B	Ha
.	.	8c	ha
.	.	8d	ha
.	.	8r	.
.	.	eq	_
.	.	[8f#	ha
=6	=6	=6	=6
1r	.	4.f#]	_
.	.	8d	ha
.	.	2r	.
=7	=7	=7	=7
1r	.	1r	.
=8	=8	=8	=8
1r	.	1r	.
=9	=9	=9	=9
1r	.	4r	.
.	.	4B	Ha
.	.	8c	ha
.	.	8d	ha
.	.	8r	.
.	.	eq	_
.	.	[8f#	ha
=10	=10	=10	=10
1r	.	4.f#]	_
.	.	8d	ha
.	.	2r	.
=11	=11	=11	=11
1r	.	1r	.
=12	=12	=12	=12
1r	.	1r	.
=13	=13	=13	=13
1r	.	1r	.
=14	=14	=14	=14
4r	.	1r	.
8B	So	.	.
A#q	_	.	.
[8B	true	.	.
4B_	_	.	.
16B]	_	.	.
8.r	.	.	.
=15	=15	=15	=15
16B	fun-	1r	.
16B	-ny	.	.
8B	how	.	.
8c	it	.	.
Aq	_	.	.
[8B	seems	.	.
4.B]	_	.	.
8r	.	.	.
=16	=16	=16	=16
8c	al-	1r	.
8B	-ways	.	.
8A	in	.	.
[8G	time	.	.
4G]	_	.	.
8r	.	.	.
8G	but	.	.
=17	=17	=17	=17
B-q	_	1r	.
4.c	ne-	.	.
16B-	-ver	.	.
16A	in	.	.
4G	line	.	.
8A	for	.	.
16B	dreams	.	.
16A	_	.	.
=18	=18	=18	=18
4.B	_	1r	.
8r	.	.	.
8B	Head	.	.
8d	o-	.	.
8e	-ver	.	.
[8f#	heels	.	.
=19	=19	=19	=19
4f#]	_	1r	.
c#q	_	.	.
4d	when	.	.
8B	toe	.	.
[8d	to	.	.
4d]	_	.	.
=20	=20	=20	=20
4G	toe	1r	.
8E	_	.	.
8r	.	.	.
8G	this	.	.
8A	is	.	.
8G	the	.	.
[8d	sound	.	.
=21	=21	=21	=21
2d_	_	1r	.
8d]	_	.	.
8e	of	.	.
8d	my	.	.
[8G	soul	.	.
=22	=22	=22	=22
4G]	_	1r	.
4r	.	.	.
8G	This	.	.
8A	is	.	.
8G	the	.	.
16.d	sound	.	.
32c	_	.	.
=23	=23	=23	=23
1d	_	1r	.
=24	=24	=24	=24
8r	.	1r	.
8e	I	.	.
8e	bought	.	.
8e	a	.	.
16e	ti-	.	.
16d	-cket	.	.
8c	to	.	.
8B	the	.	.
Aq	_	.	.
[8B	world	.	.
=25	=25	=25	=25
16B]	_	1r	.
16A	_	.	.
[8B	_	.	.
8.B]	_	.	.
16r	.	.	.
2r	.	.	.
=26	=26	=26	=26
8r	.	1r	.
8c	but	.	.
8c	now	.	.
8c	I've	.	.
8c	come	.	.
8B	back	.	.
8A	a-	.	.
[8B	-gain	.	.
=27	=27	=27	=27
16B]	_	1r	.
16A	_	.	.
[8G	_	.	.
8G]	_	.	.
8r	.	.	.
2r	.	.	.
=28	=28	=28	=28
4r	.	1r	.
8e	Why	.	.
16e	do	.	.
16e	I	.	.
8g	find	.	.
8g	it	.	.
eq	_	.	.
8d	hard	.	.
8d	to	.	.
=29	=29	=29	=29
8e	write	1r	.
16d	the	.	.
[16d	next	.	.
8d]	_	.	.
8B	line	.	.
4r	.	.	.
8r	.	.	.
8G	Oh,	.	.
=30	=30	=30	=30
8c	I	1r	.
8B	want	.	.
8G	the	.	.
8c	truth	.	.
8B	to	.	.
8G	be	.	.
[4G	heard	.	.
=31	=31	=31	=31
*M3/4	*	*M3/4	*
4.G]	_	2.r	.
8r	.	.	.
4r	.	.	.
=32	=32	=32	=32
*M4/4	*	*M4/4	*
1r	.	4r	.
.	.	4B	Ha
.	.	8c	ha
.	.	8d	ha
.	.	8r	.
.	.	eq	_
.	.	[8f#	ha
=33	=33	=33	=33
2r	.	4.f#]	_
.	.	8d	ha
4r	.	4r	.
8r	.	4r	.
8G	I	.	.
=34	=34	=34	=34
4.d	know	4.d	know
[8G	this	[8G	this
4G]	_	4G]	_
4r	.	4r	.
=35	=35	=35	=35
4.d	much	4.d	much
8G	is	8G	is
4r	.	4r	.
8A	true	8A	true
8G	!	8G	!
=36	=36	=36	=36
1r	.	4r	.
.	.	4B	Ha
.	.	8c	ha
.	.	8d	ha
.	.	8r	.
.	.	eq	_
.	.	8f#	ha
=37	=37	=37	=37
2r	.	4.f#	_
.	.	8d	ha
4r	.	4r	.
8r	.	4r	.
8G	_	.	.
=38	=38	=38	=38
4.d	know	4.d	know
[8G	this	[8G	this
4G]	_	4G]	_
4r	.	4r	.
=39	=39	=39	=39
4.d	much	4.d	much
[8G	is	[8G	is
8G]	_	8G]	_
8r	.	8r	.
4r	.	4r	.
=40	=40	=40	=40
8e	true	4e	true!
d#q	_	.	.
16.e	_	.	.
32dd	_	.	.
4r	.	4r	.
2r	.	2r	.
=41	=41	=41	=41
1r	.	1r	.
=42	=42	=42	=42
1r	.	1r	.
=43	=43	=43	=43
4r	.	1r	.
8B	With	.	.
8B	a	.	.
8c	thrill	.	.
8B	in	.	.
8B	my	.	.
16.d	head	.	.
32c	_	.	.
=44	=44	=44	=44
16B	_	1r	.
8r	.	.	.
16r	.	.	.
8B	and	.	.
8B	a	.	.
8d	pill	.	.
4e	on	.	.
[8d	my	.	.
=45	=45	=45	=45
8d]	_	1r	.
4G	tongue	.	.
8r	.	.	.
8G	dis-	.	.
8A	-solve	.	.
8G	the	.	.
16.d	nerves	.	.
32c	_	.	.
=46	=46	=46	=46
4.d	_	1r	.
16c	that	.	.
16c	have	.	.
4G	just	.	.
8A	be-	.	.
16B	-gun	.	.
16A	_	.	.
=47	=47	=47	=47
4B	_	1r	.
4r	.	.	.
8B	List-	.	.
8c	-'ning	.	.
8d	to	.	.
[8f#	Mar	.	.
=48	=48	=48	=48
8f#]	_	2r	.
8d	_	.	.
4d	vin	.	.
2r	.	8B	All
.	.	[8a	night
.	.	16a]	_
.	.	16r	.
.	.	g	_
.	.	[8a	long
=49	=49	=49	=49
2r	.	8a]	_
.	.	4g	_
.	.	8r	.
8G	This	2r	.
8A	is	.	.
8G	the	.	.
[8d	sound	.	.
=50	=50	=50	=50
2d_	_	1r	.
8d]	_	.	.
8e	of	.	.
8d	my	.	.
[8G	soul	.	.
=51	=51	=51	=51
4G]	_	2r	.
4r	.	.	.
8G	this	8G	_
8A	is	8A	_
8G	the	8G	_
16.d	sound	16.d	_
32c	_	32c	_
=52	=52	=52	=52
1d	_	1d	_
=53	=53	=53	=53
4r	.	1r	.
8e	Al-	.	.
8e	-ways	.	.
16e	slip-	.	.
16d	-ping	.	.
8c	from	.	.
8B	my	.	.
Aq	_	.	.
[8B	hands	.	.
=54	=54	=54	=54
16B]	_	1r	.
16A	_	.	.
[8B	_	.	.
8.B]	_	.	.
16r	.	.	.
2r	.	.	.
=55	=55	=55	=55
4r	.	1r	.
8c	Sand's	.	.
8c	a	.	.
8c	time	.	.
8B	of	.	.
8A	its	.	.
[8B	own	.	.
=56	=56	=56	=56
16B]	_	1r	.
16A	_	.	.
[8G	_	.	.
8G]	_	.	.
8r	.	.	.
2r	.	.	.
=57	=57	=57	=57
4r	.	1r	.
8e	Take	.	.
8e	your	.	.
8g	sea-	.	.
8g	-side	.	.
eq	_	.	.
8d	arms	.	.
8d	and	.	.
=58	=58	=58	=58
8e	write	1r	.
16d	the	.	.
[16d	next	.	.
8d]	_	.	.
Aq	_	.	.
[8B	line	.	.
8A	_	.	.
8r	.	.	.
8r	.	.	.
8G	Oh,	.	.
=59	=59	=59	=59
8c	I	1r	.
8B]	want	.	.
8G	the	.	.
8c	truth	.	.
8B	to	.	.
8G	be	.	.
[4G	known	.	.
=60	=60	=60	=60
*M3/4	*	*M3/4	*
4.G]	_	2.r	.
8r	.	.	.
4r	.	.	.
=61	=61	=61	=61
*M4/4	*	*M4/4	*
1r	.	4r	.
.	.	4B	Ha
.	.	8c	ha
.	.	8d	ha
.	.	8r	.
.	.	eq	_
.	.	[8f#	ha
=62	=62	=62	=62
2r	.	4.f#]	_
.	.	8d	ha
4r	.	4r	.
8r	.	4r	.
8G	I	.	.
=63	=63	=63	=63
4.d	know	4.d	know
[8G	this	[8G	this
4G]	_	4G]	_
4r	.	4r	.
=64	=64	=64	=64
4.d	much	4.d	much
8G	is	8G	is
4r	.	4r	.
8A	true	8A	true
8G	!	8G	!
=65	=65	=65	=65
1r	.	4r	.
.	.	4B	Ha
.	.	8c	ha
.	.	8d	ha
.	.	8r	.
.	.	eq	_
.	.	8f#	ha
=66	=66	=66	=66
2r	.	4.f#	_
.	.	8d	ha
4r	.	4r	.
8r	.	4r	.
8G	_	.	.
=67	=67	=67	=67
4.d	know	4.d	know
[8G	this	[8G	this
4G]	_	4G]	_
4r	.	4r	.
=68	=68	=68	=68
4.d	much	4.d	much
[8G	is	[8G	is
8G]	_	8G]	_
8r	.	8r	.
4r	.	4r	.
=69	=69	=69	=69
8e	true	4e	true!
d#q	_	.	.
16.e	_	.	.
32dd	_	.	.
4r	.	4r	.
2r	.	2r	.
=70	=70	=70	=70
1r	.	1r	.
=71	=71	=71	=71
1r	.	1r	.
=72	=72	=72	=72
1r	.	1r	.
=73	=73	=73	=73
1r	.	1r	.
=74	=74	=74	=74
1r	.	1r	.
=75	=75	=75	=75
1r	.	1r	.
=76	=76	=76	=76
1r	.	1r	.
=77	=77	=77	=77
1r	.	1r	.
=78	=78	=78	=78
1r	.	1r	.
=79	=79	=79	=79
1r	.	1r	.
=80	=80	=80	=80
1r	.	1r	.
=81	=81	=81	=81
1r	.	1r	.
=82	=82	=82	=82
1r	.	1r	.
=83	=83	=83	=83
1r	.	1r	.
=84	=84	=84	=84
1r	.	1r	.
=85	=85	=85	=85
1r	.	1r	.
=86	=86	=86	=86
1r	.	1r	.
=87	=87	=87	=87
1r	.	1r	.
=88	=88	=88	=88
8r	.	1r	.
8e	I	.	.
8e	bought	.	.
8e	a	.	.
16e	ti-	.	.
16e	-cket	.	.
8f#	to	.	.
8e	the	.	.
8g	wo-	.	.
=89	=89	=89	=89
8r	.	1r	.
8e	-ho-	.	.
8r	.	.	.
[8d	-horld	.	.
8d]	_	.	.
16B	_	.	.
16ee-	_	.	.
4r	.	.	.
=90	=90	=90	=90
8r	.	1r	.
8c	But	.	.
8c	now	.	.
8c	I've	.	.
8c	come	.	.
8B	back	.	.
8A	a-	.	.
16.B	-gain	.	.
32A	_	.	.
=91	=91	=91	=91
8B	_	1r	.
8r	.	.	.
4r	.	.	.
2r	.	.	.
=92	=92	=92	=92
4r	.	1r	.
8e	Why	.	.
16e	do	.	.
16e	I	.	.
8g	find	.	.
8g	it	.	.
eq	_	.	.
8d	hard	.	.
8d	to	.	.
=93	=93	=93	=93
8e	write	1r	.
16d	the	.	.
[16d	next	.	.
8d]	_	.	.
Aq	_	.	.
[8B	line	.	.
8A	_	.	.
8r	.	.	.
8r	.	.	.
8G	Oh,	.	.
=94	=94	=94	=94
8c	I	1r	.
8B]	want	.	.
8G	the	.	.
8c	truth	.	.
8B	to	.	.
8G	be	.	.
[4g	heard	.	.
=95	=95	=95	=95
2g_	_	1r	.
16g]	_	.	.
16ee	_	.	.
4r	.	.	.
8r	.	.	.
=96	=96	=96	=96
*M3/4	*	*M3/4	*
2.r	.	2.r	.
=97	=97	=97	=97
*M4/4	*	*M4/4	*
1r	.	4r	.
.	.	4B	Ha
.	.	8c	ha
.	.	8d	ha
.	.	8r	.
.	.	eq	_
.	.	[8f#	ha
=98	=98	=98	=98
2r	.	4.f#]	_
.	.	8d	ha
4r	.	4r	.
8r	.	8r	.
8G	I	8r	.
=99	=99	=99	=99
4.d	know	4.d	know
[8G	this	[8G	this
4G]	_	4G]	_
4r	.	4r	.
=100	=100	=100	=100
4.d	much	4.d	much
8G	is	8G	is
4r	.	4r	.
8A	true	8A	true
8G	!	8G	!
=101	=101	=101	=101
1r	.	4r	.
.	.	4B	Ha
.	.	8c	ha
.	.	8d	ha
.	.	8r	.
.	.	eq	_
.	.	8f#	ha
=102	=102	=102	=102
2r	.	4.f#	_
.	.	8d	ha
4r	.	4r	.
8r	.	8r	.
8G	I	8r	.
=103	=103	=103	=103
4.d	know	4.d	know
[8G	this	[8G	this
4G]	_	4G]	_
4r	.	4r	.
=104	=104	=104	=104
4.d	much	4.d	much
[8G	is	[8G	is
8G]	_	8G]	_
8r	.	8r	.
4r	.	4r	.
=105	=105	=105	=105
8e	true	4e	true
d#q	_	.	.
16.e	_	.	.
32dd	_	.	.
4r	.	4r	.
2r	.	2r	.
=106	=106	=106	=106
1r	.	1r	.
=107	=107	=107	=107
1r	.	1r	.
=108	=108	=108	=108
2r	.	1r	.
8r	.	.	.
16f#	This	.	.
[16g	_	.	.
4g]	_	.	.
=109	=109	=109	=109
12g	much	1r	.
6e	is	.	.
8e	true	.	.
d#q	_	.	.
16.e	_	.	.
32b	_	.	.
2r	.	.	.
=110	=110	=110	=110
1r	.	1r	.
=111	=111	=111	=111
1r	.	1r	.
=112	=112	=112	=112
1r	.	8r	.
.	.	8D d	This
.	.	8D d	much
.	.	16E e	is
.	.	16D d	a'
.	.	8G g	true
.	.	16A# a#	_
.	.	16B b	_
.	.	4r	.
=113	=113	=113	=113
1r	.	8r	.
.	.	8D d	This
.	.	8D d	much
.	.	16E e	is
.	.	16D d	a'
.	.	8G g	true
.	.	16A# a#	_
.	.	16B b	_
.	.	8r	.
.	.	8G g	hoo!
=114	=114	=114	=114
2r	.	1r	.
4r	.	.	.
8r	.	.	.
8g	I	.	.
=115	=115	=115	=115
8g	know,	1r	.
8f#	I	.	.
8f#	know,	.	.
8e	I	.	.
8e	know	.	.
8d	this	.	.
8d	much	.	.
8e	is	.	.
=116	=116	=116	=116
8.d	true	8r	.
.	.	8D d	This
16c	_	.	.
8B	_	8D d	much
8r	.	16E e	is
.	.	16D d	a'
2r	.	8G g	true
.	.	16A# a#	_
.	.	16B b	_
.	.	4r	.
=117	=117	=117	=117
1r	.	8r	.
.	.	8D d	This
.	.	8D d	much
.	.	16E e	is
.	.	16D d	a'
.	.	8G g	true
.	.	16A# a#	_
.	.	16B b	_
.	.	8r	.
.	.	8G g	hoo!
=118	=118	=118	=118
1r	.	1r	.
=119	=119	=119	=119
1r	.	1r	.
=120	=120	=120	=120
2r	.	8r	.
.	.	8D d	This
.	.	8D d	much
.	.	16E e	is
.	.	16D d	a'
4r	.	8G g	true
.	.	16A# a#	_
.	.	16B b	_
8r	.	4r	.
16e	Ha	.	.
[16f#	_	.	.
=121	=121	=121	=121
2f#]	_	8r	.
.	.	8D d	This
.	.	8D d	much
.	.	16E e	is
.	.	16D d	a'
4r	.	8G g	true
.	.	16A# a#	_
.	.	16B b	_
8r	.	8r	.
8g	I	8G g	hoo!
=122	=122	=122	=122
4.g	know	4.d	_
16d	this	[8G	_
[16e	_	.	.
8e]	_	4G]	_
8r	.	.	.
4r	.	4r	.
=123	=123	=123	=123
f#q	_	4.d	_
4.g	much	.	.
8d	is	8G	_
4r	.	4r	.
gq	_	8A	_
8a	true	.	.
8g	_	8G	_
=124	=124	=124	=124
2r	.	8r	.
.	.	8D d	This
.	.	8D d	much
.	.	16E e	is
.	.	16D d	a'
4r	.	8G g	true
.	.	16A# a#	_
.	.	16B b	_
8r	.	4r	.
16e	Ha	.	.
[16f#	_	.	.
=125	=125	=125	=125
2f#]	_	8r	.
.	.	8D d	This
.	.	8D d	much
.	.	16E e	is
.	.	16D d	a'
2r	.	8G g	true
.	.	16A# a#	_
.	.	16B b	_
.	.	8r	.
.	.	8G g	hoo!
=126	=126	=126	=126
1r	.	4.d	_
.	.	[8G	_
.	.	4G]	_
.	.	4r	.
=127	=127	=127	=127
1r	.	4.d	_
.	.	8G	_
.	.	4r	.
.	.	8A	_
.	.	8G	_
=128	=128	=128	=128
1r	.	8r	.
.	.	8D d	This
.	.	8D d	much
.	.	16E e	is
.	.	16D d	a'
.	.	8G g	true
.	.	16A# a#	_
.	.	16B b	_
.	.	4r	.
=129	=129	=129	=129
1r	.	8r	.
.	.	8D d	This
.	.	8D d	much
.	.	16E e	is
.	.	16D d	a'
.	.	8G g	true
.	.	16A# a#	_
.	.	16B b	_
.	.	8r	.
.	.	8G g	hoo!
=130	=130	=130	=130
2r	.	4.d	_
.	.	[8G	_
4r	.	4G]	_
8r	.	4r	.
8g	I	.	.
=131	=131	=131	=131
8g	know,	4.d	_
8f#	I	.	.
8f#	know,	.	.
8e	I	8G	_
8e	know	4r	.
8d	this	.	.
8d	much	8A	_
8e	is	8G	_
=132	=132	=132	=132
8.d	true	8r	.
.	.	8D d	This
16c	_	.	.
8B	_	8D d	much
8r	.	16E e	is
.	.	16D d	a'
4r	.	8G g	true
.	.	16A# a#	_
.	.	16B b	_
8r	.	4r	.
16e	Ha	.	.
[16f#	_	.	.
=133	=133	=133	=133
2f#]	_	8r	.
.	.	8D d	This
.	.	8D d	much
.	.	16E e	is
.	.	16D d	a'
2r	.	8G g	true
.	.	16A# a#	_
.	.	16B b	_
.	.	8r	.
.	.	8G g	hoo!
*-	*-	*-	*-
!!!ENC: Nathaniel Condit-Schultz